assets/icons/facebook.svg

<svg width="20" height="21" viewBox="0 0 20 21" fill="none" xmlns="http://www.w3.org/2000/svg">
<g clip-path="url(#clip0_472_579)">
<path d="M20 10.5C20 4.97719 15.5228 0.5 10 0.5C4.47719 0.5 0 4.97719 0 10.5C0 15.4913 3.65687 19.6284 8.4375 20.3785V13.3906H5.89844V10.5H8.4375V8.29688C8.4375 5.79063 9.93047 4.40625 12.2147 4.40625C13.3088 4.40625 14.4531 4.60156 14.4531 4.60156V7.0625H13.1922C11.9499 7.0625 11.5625 7.83336 11.5625 8.62422V10.5H14.3359L13.8926 13.3906H11.5625V20.3785C16.3431 19.6284 20 15.4913 20 10.5Z" fill="#1877F2"/>
<path d="M13.8926 13.3906L14.3359 10.5H11.5625V8.62422C11.5625 7.83328 11.9499 7.0625 13.1922 7.0625H14.4531V4.60156C14.4531 4.60156 13.3088 4.40625 12.2146 4.40625C9.93047 4.40625 8.4375 5.79063 8.4375 8.29688V10.5H5.89844V13.3906H8.4375V20.3785C8.95439 20.4595 9.4768 20.5001 10 20.5C10.5232 20.5001 11.0456 20.4595 11.5625 20.3785V13.3906H13.8926Z" fill="white"/>
</g>
<defs>
<clipPath id="clip0_472_579">
<rect width="20" height="20" fill="white" transform="translate(0 0.5)"/>
</clipPath>
</defs>
</svg>

<svg xmlns="http://www.w3.org/2000/svg" width="20" height="21" fill="none" viewBox="0 0 20 21"><g clip-path="url(#a)"><path fill="#1877f2" d="M20 10.5c0-5.523-4.477-10-10-10S0 4.977 0 10.5c0 4.991 3.657 9.128 8.438 9.878v-6.987h-2.54V10.5h2.54V8.297c0-2.506 1.492-3.89 3.777-3.89 1.094 0 2.238.195 2.238.195v2.46h-1.26c-1.243 0-1.63.771-1.63 1.562V10.5h2.773l-.443 2.89h-2.33v6.988C16.343 19.629 20 15.491 20 10.5"/><path fill="#fff" d="m13.893 13.39.443-2.89h-2.774V8.624c0-.79.388-1.562 1.63-1.562h1.261v-2.46s-1.144-.196-2.238-.196c-2.285 0-3.777 1.385-3.777 3.89V10.5h-2.54v2.89h2.54v6.988a10 10 0 0 0 3.124 0v-6.987z"/></g><defs><clipPath id="a"><path fill="#fff" d="M0 .5h20v20H0z"/></clipPath></defs></svg>
